X:55
T:55 Bonny Part's Birth Day
C:Welch MS
I:abc2nwc
M:6/8
L:1/8
K:G
G/2A/2|d2d e2d|B2B d2B|A2A AGA|B3G2G/2A/2|d2d e2d|B2B d2B|A2A A G F|G3G2:|
g|f2d def|g3d2B|cec BdB|AFD D2g|f2d def|g3d2g|fga gfe|d3d2:|

